src/images/07-reviews/home.svg

<svg width="12" height="12" viewBox="0 0 12 12" fill="none" xmlns="http://www.w3.org/2000/svg">
<path d="M11.8497 6.28727C12.0672 6.06411 12.0462 5.72207 11.8028 5.5235L6.43981 1.14624C6.19638 0.947669 5.80611 0.951828 5.56781 1.15561L0.186634 5.75688C-0.0516656 5.96066 -0.0633615 6.30227 0.160739 6.51955L0.295652 6.65062C0.519479 6.86791 0.88127 6.89381 1.10322 6.70831L1.50538 6.37236V11.2907C1.50538 11.5924 1.7675 11.8367 2.09076 11.8367H4.18836C4.51162 11.8367 4.77374 11.5924 4.77374 11.2907V7.84984H7.44925V11.2907C7.4446 11.5922 7.6759 11.8365 7.99916 11.8365H10.2221C10.5453 11.8365 10.8075 11.5922 10.8075 11.2905V6.44161C10.8075 6.44161 10.9186 6.5324 11.0556 6.64474C11.1924 6.75687 11.4797 6.66697 11.6972 6.44358L11.8497 6.28727Z" fill="#D31342"/>
</svg>

<svg width="12" height="12" fill="none" xmlns="http://www.w3.org/2000/svg"><path d="M11.8497 6.2873c.2175-.2232.1965-.5652-.0469-.7638l-5.363-4.3773c-.2434-.1985-.6337-.1944-.872.0094L.1866 5.757c-.2383.2038-.25.5454-.0259.7626l.135.1311c.2238.2173.5856.2432.8075.0577l.4022-.336v4.9184c0 .3017.2621.546.5854.546h2.0976c.3232 0 .5853-.2443.5853-.546V7.8498h2.6756v3.4409c-.0047.3015.2266.5458.5499.5458h2.2229c.3232 0 .5854-.2443.5854-.546V6.4416s.1111.0908.2481.2031c.1368.1122.4241.0223.6416-.2011l.1525-.1563Z" fill="#D31342"/></svg>
